icons/paw.svg

<svg xmlns="http://www.w3.org/2000/svg" width="24" height="24" viewBox="0 0 24 24">
  <path d="M12.1650635,10.5 C14.2619012,10.5 15.6567048,11.7450294 16.4430428,13.7162263 L16.4430428,13.7162263 L16.4550635,13.749 L16.5430769,13.7936318 C17.9974072,14.5668522 19.0758462,16.3064689 19.1597944,17.8129862 L19.1597944,17.8129862 L19.1650635,18 C19.1650635,18.7345119 19.1454478,19.1595185 19.0546858,19.6889638 C18.8236246,21.0368205 18.1931435,22.0447326 16.9812913,22.4486833 C16.3562538,22.6570291 15.7605481,22.6871153 15.1117756,22.5789865 C14.9150943,22.5462063 14.7169738,22.501851 14.486349,22.4415569 L14.486349,22.4415569 L13.6535374,22.2135337 C13.0731723,22.0629302 12.6627479,22 12.1650635,22 C11.5962814,22 11.1414714,22.0821946 10.4167074,22.2835179 L10.4167074,22.2835179 L9.93257201,22.4180071 L9.62283742,22.4966997 C9.48123281,22.5301351 9.3494723,22.557133 9.21835139,22.5789865 C8.56957892,22.6871153 7.97387318,22.6570291 7.34883574,22.4486833 C5.65238203,21.8831987 5.18408021,20.4367521 5.16583594,18.2608977 L5.16583594,18.2608977 L5.16506351,18 C5.16506351,16.2780057 6.21395049,14.580937 7.76835194,13.793834 L7.76835194,13.793834 L7.87706351,13.741 L7.98052117,13.4920326 C8.74970405,11.724737 10.0404092,10.5931917 11.9262309,10.5054958 L11.9262309,10.5054958 Z M18.7,9.40358984 C19.4607188,8.08598627 20.756091,7.58845313 22.1650635,8.40192379 C23.574036,9.21539444 23.7908458,10.5859863 23.030127,11.9035898 C22.1629427,13.4055971 20.6395217,14.449355 19.1650635,13.5980762 C17.6906053,12.7467974 17.8328157,10.9055971 18.7,9.40358984 Z M2.16506351,8.40192379 C3.57403602,7.58845313 4.86940825,8.08598627 5.63012702,9.40358984 C6.4973113,10.9055971 6.63952167,12.7467974 5.16506351,13.5980762 C3.69060535,14.449355 2.16718428,13.4055971 1.3,11.9035898 C0.539281228,10.5859863 0.756091003,9.21539444 2.16506351,8.40192379 Z M7.58809612,2.13629669 C9.82621265,1.53659518 10.7853898,2.53240489 11.435503,4.9062008 L11.435503,4.9062008 L11.5211498,5.22354286 C12.0760289,7.29438007 11.3611819,9.40751085 9.65864848,9.86370331 C7.95611506,10.3198958 6.28047398,8.84729434 5.72559482,6.77645714 C4.99677657,4.0564704 5.21699521,2.77163127 7.58809612,2.13629669 Z M12.9755948,5.22354286 C13.7044131,2.50355613 14.5375476,1.50096212 16.9086485,2.13629669 C19.146765,2.73599821 19.4795319,4.07798329 18.8556485,6.45880747 L18.8556485,6.45880747 L18.7711498,6.77645714 C18.2162706,8.84729434 16.5406295,10.3198958 14.8380961,9.86370331 C13.1355627,9.40751085 12.4207157,7.29438007 12.9755948,5.22354286 Z"/>
</svg>

<svg xmlns="http://www.w3.org/2000/svg" viewBox="0 0 24 24">
  <path d="M12.17 10.5c2.1 0 3.49 1.25 4.27 3.22l.02.03.08.04a5.24 5.24 0 0 1 2.62 4.02V18c0 .73-.01 1.16-.1 1.69-.24 1.35-.87 2.35-2.08 2.76-.62.2-1.22.24-1.87.13-.2-.03-.4-.08-.62-.14l-.84-.23a5.5 5.5 0 0 0-3.23.07l-.49.14-.3.08-.41.08c-.65.1-1.25.08-1.87-.13-1.7-.57-2.17-2.01-2.18-4.19V18a4.84 4.84 0 0 1 2.6-4.2l.1-.06.11-.25c.77-1.77 2.06-2.9 3.95-2.98zm6.53-1.1c.76-1.31 2.06-1.81 3.47-1 1.4.82 1.62 2.19.86 3.5-.87 1.5-2.39 2.55-3.86 1.7-1.48-.85-1.34-2.7-.47-4.2zm-16.53-1c1.4-.81 2.7-.31 3.46 1 .87 1.5 1.01 3.35-.46 4.2-1.48.85-3-.2-3.87-1.7-.76-1.31-.54-2.68.87-3.5zm5.42-6.26c2.24-.6 3.2.4 3.85 2.77l.08.31c.56 2.07-.16 4.19-1.86 4.64-1.7.46-3.38-1.01-3.93-3.08-.73-2.72-.51-4 1.86-4.64zm5.39 3.08c.72-2.72 1.56-3.72 3.93-3.08 2.24.6 2.57 1.94 1.95 4.32l-.09.32c-.55 2.07-2.23 3.54-3.93 3.08-1.7-.45-2.42-2.57-1.86-4.64z"/>
</svg>
